packages/netlify-cms-ui-default/src/Icon/images/settings.svg

<svg height="24" viewBox="0 0 24 24" width="24" xmlns="http://www.w3.org/2000/svg"><path d="m18.886759 12.8744229c.0370426-.2876452.0648245-.5752904.0648245-.8809134 0-.3056231-.0277819-.5932683-.0648245-.8809135l1.9539953-1.4831705c.1759521-.13483369.2222553-.37753432.1111277-.5752904l-1.8521282-3.11016369c-.1111277-.19775607-.361165-.26966737-.5648991-.19775607l-2.3058996.89889124c-.4815533-.3595565-1.0001492-.65619061-1.5650483-.88091342l-.3519044-2.38206179c-.0277819-.2157339-.2222554-.37753432-.4537714-.37753432h-3.7042564c-.23151599 0-.42598945.16180042-.45377137.37753432l-.35190436 2.38206179c-.56489909.22472281-1.08349499.53034583-1.56504832.88091342l-2.30589959-.89889124c-.21299474-.08090021-.4537714 0-.56489909.19775607l-1.85212819 3.11016369c-.12038833.19775608-.06482448.44045671.11112769.5752904l1.95399524 1.4831705c-.03704257.2876452-.06482449.5842794-.06482449.8809135s.02778192.5932682.06482449.8809134l-1.95399524 1.4831705c-.17595217.1348337-.22225538.3775343-.11112769.5752904l1.85212819 3.1101637c.11112769.1977561.36116499.2696674.56489909.1977561l2.30589959-.8988913c.48155333.3595565 1.00014923.6561907 1.56504832.8809135l.35190436 2.3820618c.02778192.2157339.22225538.3775343.45377137.3775343h3.7042564c.231516 0 .4259895-.1618004.4537714-.3775343l.3519044-2.3820618c.5648991-.2247228 1.083495-.5303459 1.5650483-.8809135l2.3058996.8988913c.2129947.0809002.4537714 0 .5648991-.1977561l1.8521282-3.1101637c.1111276-.1977561.0648244-.4404567-.1111277-.5752904zm-6.8772817 2.1312871c-1.6615648 0-3.01320044-1.3516356-3.01320044-3.0132005 0-1.6615648 1.35163564-3.01320042 3.01320044-3.01320042s3.0132005 1.35163562 3.0132005 3.01320042c0 1.6615649-1.3516357 3.0132005-3.0132005 3.0132005z"/></svg>

<svg xmlns="http://www.w3.org/2000/svg" xmlns:xlink="http://www.w3.org/1999/xlink" width="24" height="24" viewBox="0 0 24 24"><path id="icon-settings@2x-a" d="M18.886759,12.8744229 C18.9238016,12.5867777 18.9515835,12.2991325 18.9515835,11.9935095 C18.9515835,11.6878864 18.9238016,11.4002412 18.886759,11.112596 L20.8407543,9.6294255 C21.0167064,9.49459181 21.0630096,9.25189118 20.951882,9.0541351 L19.0997538,5.94397141 C18.9886261,5.74621534 18.7385888,5.67430404 18.5348547,5.74621534 L16.2289551,6.64510658 C15.7474018,6.28555008 15.2288059,5.98891597 14.6639068,5.76419316 L14.3120024,3.38213137 C14.2842205,3.16639747 14.089747,3.00459705 13.858231,3.00459705 L10.1539746,3.00459705 C9.92245861,3.00459705 9.72798515,3.16639747 9.70020323,3.38213137 L9.34829887,5.76419316 C8.78339978,5.98891597 8.26480388,6.29453899 7.78325055,6.64510658 L5.47735096,5.74621534 C5.26435622,5.66531513 5.02357956,5.74621534 4.91245187,5.94397141 L3.06032368,9.0541351 C2.93993535,9.25189118 2.9954992,9.49459181 3.17145137,9.6294255 L5.12544661,11.112596 C5.08840404,11.4002412 5.06062212,11.6968754 5.06062212,11.9935095 C5.06062212,12.2901436 5.08840404,12.5867777 5.12544661,12.8744229 L3.17145137,14.3575934 C2.9954992,14.4924271 2.94919599,14.7351277 3.06032368,14.9328838 L4.91245187,18.0430475 C5.02357956,18.2408036 5.27361686,18.3127149 5.47735096,18.2408036 L7.78325055,17.3419123 C8.26480388,17.7014688 8.78339978,17.998103 9.34829887,18.2228258 L9.70020323,20.6048876 C9.72798515,20.8206215 9.92245861,20.9824219 10.1539746,20.9824219 L13.858231,20.9824219 C14.089747,20.9824219 14.2842205,20.8206215 14.3120024,20.6048876 L14.6639068,18.2228258 C15.2288059,17.998103 15.7474018,17.6924799 16.2289551,17.3419123 L18.5348547,18.2408036 C18.7478494,18.3217038 18.9886261,18.2408036 19.0997538,18.0430475 L20.951882,14.9328838 C21.0630096,14.7351277 21.0167064,14.4924271 20.8407543,14.3575934 L18.886759,12.8744229 Z M12.0094773,15.00571 C10.3479125,15.00571 8.99627686,13.6540744 8.99627686,11.9925095 C8.99627686,10.3309447 10.3479125,8.97930908 12.0094773,8.97930908 C13.6710421,8.97930908 15.0226778,10.3309447 15.0226778,11.9925095 C15.0226778,13.6540744 13.6710421,15.00571 12.0094773,15.00571 Z"/></svg>
